X:1
T:Standin In The Need of Prayer
T:When Morning Comes
T:Copyright 1918 by Homer A. Rodeheaver
T:Rodeheaver's Plantation Melodies
T:Rodeheaver's Plantation Melodies
Z:Rodeheaver's Plantation Melodies
%%score [ 1 2 3 4 ]
L:1/8
Q:1/4=100
M:4/4
K:Eb
V:1 treble nm="Soprano" snm="S."
V:2 treble nm="Alto" snm="A."
V:3 bass nm="Tenor" snm="T."
V:4 bass nm="Bass" snm="B."
V:1
 EF | GGGG G2 FG | FEEC E2 EF | GGGG GFEG | FFFG F2 EF | GGGG G2 FG | FEEC E2 EF | GGGG F<F G>F | %8
 E6 z2 |"^CHORUS" B3 c G4 | F>E EC E4 | B3 c G2 E2 | FF F/F/G F2 EG | B3 c G2 _E2 | FEEC E2 EF | %15
 GGGG F<F G>F | E6 :| %17
V:2
 E-E | EEEE E2 D_D | CCCC B,2 B,B, | EEEE EB,B,E | DDEE D2 B,B, | EEEE E2 _DD | CCCC B,2 B,B, | %7
w: Tri- als|dark on ev- 'ry hand, and we|can- not un- der- stand All the|ways that God will lead us to that|bless- ed prom- ised land, But He'll|guide us with His eye, and we'll|fol- low till we die, We will|
 EEEE D<D E>B, | B,6 z2 | G3 G E4 | C>C CC B,4 | G3 G E2 B,2 | DD E/E/E D2 EE | G3 G E2 D2 | %14
w: un- ders- stand it bet- ter by and|by.|By.and by, when|the mor- ning co- mes,|All the saints of|God are ga- the- ring home, We will|tell the sto- ry|
 CCCC B,2 EE | EEEE D<D E>D | B,6 :| %17
w: how we o- ver- came, We will|un- der- stand it bet- ter by and|by,|
V:3
 G,A, | B,B,B,B, B,2 A,B, | A,A,A,A, G,2 G,A, | B,B,B,B, B,A,G,B, | B,B,=A,A, A,2 B,B, | %5
 B,B,B,B, B,2 A,B, | A,A,A,A, G,2 G,A, | B,B,B,B, A,<A, B,>A, | G,6 z2 | E3 E B,4 | %10
 A,>A, A,A, G,4 | E3 E B,2 B,2 | B,B, =A,/A,/A, B,2 G,B, | E3 E B,2 G,2 | A,A,A,A, G,2 B,C | %15
 B,B,B,B, A,<A, B,>A, | G,6 :| %17
V:4
 E,-E, | E,E,E,E, E,2 E,E, | A,,A,,A,,A,, E,2 E,E, | E,E,E,E, E,-E,E,E, | F,F,F,F, B,,_A,G,F, | %5
 E,E,E,E, E,2 E,E, | A,,A,,A,,A,, E,2 E,E, | B,,B,,B,,B,, B,,<B,, B,,>B,, | E,6 z2 | E,3 E, E,4 | %10
 A,,>A,, A,,A,, E,4 | E,3 E, E,2 G,2 | B,B, F,/F,/F, B,,2 E,E, | %13
"_1. Trials dark on ev-'ry hand, and we cannot understand. All the ways that God will lead us to that blessed promised land\n    But He'll guide us with His eye, and we'll follow till we die, We will understand it better by and by.\n2. We are often destitute of the things that life demands, Want for shelter and of food, thirsty hills and barren land,\n    But we're trusting in the Lord, and according to His word, We will understand it better by and by.\n3. Tempations, hidden snares, often take us unawares, And our hearts are made to bleed for each thoughtless word or deed,\n    And we wonder why the test, when we try to do our best, We will understand it better by and by." E,3 E, E,2 E,2 | %14
 A,,A,,A,,A,, E,2 G,,A,, | B,,B,,B,,B,, B,,<B,, B,,>B,, | E,6 :| %17

